X: 1
T: Round
C: Beethoven (attrib)
M: 4/4
L: 1/4
K: C
"1"[| GG EC | AA GF | F/E/F/G/ E2 |]
"2"[| EG Gc | cc cc | BB       c2 |]
"3"[| cc GE | FF ED | D/C/D/E/ C2 |]
